public/notFound/13.svg

<svg width="1840" height="1380" viewBox="0 0 1840 1380" fill="none" xmlns="http://www.w3.org/2000/svg"><path fill-rule="evenodd" clip-rule="evenodd" d="m1370 888 34.31-98.896c10.18-29.351 2.46-61.944-19.81-83.604l-.97-.941a99.968 99.968 0 0 1-29.54-83.764l12.87-105.772c6.67-54.824-32.37-104.675-87.19-111.346-2.8-.34-5.6-.561-8.42-.665L1230 401.5l-84.18-80.357c-28.69-27.382-71.48-33.816-106.95-16.08l-95.322 47.662a99.998 99.998 0 0 1-49.842 10.426l-77.375-3.968c-41.281-2.116-77.892 26.301-86.081 66.817l-12.97 64.166a99.991 99.991 0 0 0-1.735 12.78l-12.163 172.538a65.999 65.999 0 0 1-6.296 23.835l-33.449 69.938a100.004 100.004 0 0 0-6.171 69.793L671 888h699z" fill="#C4C4DE"/><path fill-rule="evenodd" clip-rule="evenodd" d="m671 888-89.712 97.381c-26.568 28.839-24.727 73.759 4.113 100.329a70.974 70.974 0 0 0 44.886 18.7l665.493 30.22c39.17 1.78 72.37-28.53 74.15-67.71.05-1.07.07-2.14.07-3.22V888H671z" fill="#8B8BB5"/><mask id="a" mask-type="alpha" maskUnits="userSpaceOnUse" x="806" y="245" width="650" height="408"><path d="M833.5 567V245h-27v335.5c0 7.456 6.044 13.5 13.5 13.5h220.22c15.72 0 31.15 4.285 44.62 12.394l50.4 30.344A113.485 113.485 0 0 0 1193.78 653h261.72v-27h-261.72a86.524 86.524 0 0 1-44.62-12.394l-50.4-30.344A113.485 113.485 0 0 0 1040.22 567H833.5z" fill="#fff"/></mask><g mask="url(#a)"><path d="M833.5 567V245h-27v335.5c0 7.456 6.044 13.5 13.5 13.5h220.22c15.72 0 31.15 4.285 44.62 12.394l50.4 30.344A113.485 113.485 0 0 0 1193.78 653h261.72v-27h-261.72a86.524 86.524 0 0 1-44.62-12.394l-50.4-30.344A113.485 113.485 0 0 0 1040.22 567H833.5z" fill="#FF8484"/><path fill-rule="evenodd" clip-rule="evenodd" d="M1337 618h144v49h-144v-49zm-561-59h144v49H776v-49zm22.5-116.5V320H859l-11.5 122.5h-49zm287 106.5 116 55v49c-3.33 12.726-17 18.06-41 16-24-2.06-60.84-11.726-110.5-29l35.5-91z" fill="#DE6262"/></g><path fill-rule="evenodd" clip-rule="evenodd" d="M974 654 642 335.5 613 746l354.5-63 6.5-29z" fill="#FFEECD"/><mask id="b" mask-type="alpha" maskUnits="userSpaceOnUse" x="448" y="318" width="288" height="419"><path d="M509.707 730.94c65.254 26.333 154.997-43.403 200.446-155.76 45.45-112.357 29.394-224.787-35.86-251.12-65.254-26.333-154.997 43.403-200.446 155.76-45.45 112.357-29.394 224.787 35.86 251.12z" fill="#fff"/></mask><g mask="url(#b)"><path d="M611.036 746.127c70.097-6.162 118.399-109.04 107.886-229.784-10.514-120.744-75.861-213.632-145.958-207.47-70.097 6.162-118.399 109.04-107.886 229.784 10.514 120.744 75.861 213.632 145.958 207.47z" fill="#F5CB76"/><path d="M729 669.5v18H621v-18h-51v-20h212v20h-53zm-2 0H623v16h104v-16zm-106-2h54v-16H572v16h49zm56 0h103v-16H677v16zm-80-283h-53v16h103v-16h-50zm0-2h52v20H436v-20h54v-18h107v18zm-55 18v-16H438v16h104zm53-18v-16H492v16h103zm-107 47h107v20H383v-20h105zm0 18v-16H385v16h103zm2 0h103v-16H490v16z" fill="#fff"/><path d="M781 715.5H676v18h105v-18zm53-46H729v18h105v-18z" stroke="#fff" stroke-width="2"/></g><path fill-rule="evenodd" clip-rule="evenodd" d="M954.966 695c-17.288 28.847-17.288 45.565 0 50.155 17.287 4.589 31.965-9.507 44.034-42.288L954.966 695z" fill="#353535"/><path d="M975.5 1048c117.36 0 212.5-11.64 212.5-26s-95.14-26-212.5-26c-117.361 0-212.5 11.64-212.5 26s95.139 26 212.5 26z" fill="#353535"/><mask id="c" mask-type="alpha" maskUnits="userSpaceOnUse" x="622" y="669" width="684" height="418"><path d="m1232.39 1009.78 22.96 16.23c.16.11.32.23.47.36 2.64 2.26 2.94 6.24.68 8.88a9.902 9.902 0 0 1-11.02 2.83c-25.98-9.73-40.97-16.76-44.98-21.08l-61.5-53.5-78-19.5-5 102c-6.34.56-11.17.89-14.5 1-30 1-54.331 1.37-70.278 1.61-15.994.25-34.791 0-62.036-.83-2.538-.08-7.708-.64-15.509-1.68l10.479-109.359-64.432 65.419a100.06 100.06 0 0 1-16.968 13.81l-58.513 37.82a64.054 64.054 0 0 1-21.986 8.96L623 1087c-1.746-14.21 4.087-27.05 17.5-38.5 11.706-9.99 50.698-16.77 78.5-18.5 2.657-.17 25.562-19 68.713-56.511a43.996 43.996 0 0 0 4.274-4.264l73.662-84.337a97.996 97.996 0 0 1 70.16-33.465L974 850l8.539-38.54h-20.798c-15.464 0-28-12.536-28-28 0-3.077.508-6.133 1.501-9.044l20.73-60.735C965.092 686.96 990.199 669 1018.43 669h13.99c23.74 0 42.99 19.246 42.99 42.986 0 4.972-.87 9.906-2.55 14.583L1026 856.5l126.75 46.391a99.985 99.985 0 0 1 43.71 31.438L1231 977.5c30-1.333 46.33.333 49 5 2.21 3.875 10.06 12.463 23.54 25.76 2.68 2.64 2.7 6.95.06 9.63-.91.93-2.08 1.57-3.35 1.86a25.986 25.986 0 0 1-22.02-5.13l-5.73-4.62c-20.53 1.12-33.53 1.12-39 0-.37-.08-.74-.15-1.11-.22z" fill="#fff"/></mask><g mask="url(#c)"><path d="m1232.39 1009.78 22.96 16.23c.16.11.32.23.47.36 2.64 2.26 2.94 6.24.68 8.88a9.902 9.902 0 0 1-11.02 2.83c-25.98-9.73-40.97-16.76-44.98-21.08l-61.5-53.5-78-19.5-5 102c-6.34.56-11.17.89-14.5 1-30 1-54.331 1.37-70.278 1.61-15.994.25-34.791 0-62.036-.83-2.538-.08-7.708-.64-15.509-1.68l10.479-109.359-64.432 65.419a100.06 100.06 0 0 1-16.968 13.81l-58.513 37.82a64.054 64.054 0 0 1-21.986 8.96L623 1087c-1.746-14.21 4.087-27.05 17.5-38.5 11.706-9.99 50.698-16.77 78.5-18.5 2.657-.17 25.562-19 68.713-56.511a43.996 43.996 0 0 0 4.274-4.264l73.662-84.337a97.996 97.996 0 0 1 70.16-33.465L974 850l8.539-38.54h-20.798c-15.464 0-28-12.536-28-28 0-3.077.508-6.133 1.501-9.044l20.73-60.735C965.092 686.96 990.199 669 1018.43 669h13.99c23.74 0 42.99 19.246 42.99 42.986 0 4.972-.87 9.906-2.55 14.583L1026 856.5l126.75 46.391a99.985 99.985 0 0 1 43.71 31.438L1231 977.5c30-1.333 46.33.333 49 5 2.21 3.875 10.06 12.463 23.54 25.76 2.68 2.64 2.7 6.95.06 9.63-.91.93-2.08 1.57-3.35 1.86a25.986 25.986 0 0 1-22.02-5.13l-5.73-4.62c-20.53 1.12-33.53 1.12-39 0-.37-.08-.74-.15-1.11-.22z" fill="#FFCDCD"/><path fill-rule="evenodd" clip-rule="evenodd" d="M951 848.5c9 15.333 24 24 45 26s36.33-3 46-15l106 21.406-44.5 81.594-22.5-3-19.69 87.98L877.054 1060l27.639-121.901-27.639 51.766L800 904.284c33.289-32.727 62.743-52.487 88.361-59.281 25.618-6.793 46.498-5.628 62.639 3.497z" fill="#FFF9D6"/></g><path fill-rule="evenodd" clip-rule="evenodd" d="m1060.69 720.384 20.31 4.86c.18 34.502-8.88 49.492-27.18 44.97-9.15-2.261-14.33-7.826-15.54-16.695-7.69 6.275-15.69 7.994-24.01 5.154-16.871-5.758-17.655-22.649-2.35-50.673l49.08 11.703c-.1.228-.21.455-.31.681z" fill="#353535"/><mask id="d" mask-type="alpha" maskUnits="userSpaceOnUse" x="947" y="659" width="143" height="70"><path d="M947 692.967 1090 729c-5.93-5.587-8.76-9.851-8.5-12.793 2.95-33.352-15.56-43.89-53.54-52.136-38.164-8.286-49.81-9.22-66.081 19.074-1.376 2.393-6.335 5.667-14.879 9.822z" fill="#fff"/></mask><g mask="url(#d)"><path d="M947 692.967 1090 729c-5.93-5.587-8.76-9.851-8.5-12.793 2.95-33.352-15.56-43.89-53.54-52.136-38.164-8.286-49.81-9.22-66.081 19.074-1.376 2.393-6.335 5.667-14.879 9.822z" fill="#3C3CA0"/><path fill-rule="evenodd" clip-rule="evenodd" d="m976 682 108.5 29 3-11.5L980 667l-4 15z" fill="#26266F"/></g><path d="M970.5 688c10.77 0 19.5-8.73 19.5-19.5s-8.73-19.5-19.5-19.5-19.5 8.73-19.5 19.5 8.73 19.5 19.5 19.5z" fill="#F5CB76"/><path d="M970.5 683c8.56 0 15.5-6.492 15.5-14.5s-6.94-14.5-15.5-14.5c-8.56 0-15.5 6.492-15.5 14.5s6.94 14.5 15.5 14.5z" fill="#FFEECD"/><path d="M964.331 718.876c-2.118-5.007-5.186-7.376-9.331-7.376v-3c5.174 0 9.105 2.842 11.685 8.294 10.035-5.98 18.462-3.798 24.602 6.434a1.5 1.5 0 1 1-2.573 1.544c-5.497-9.162-12.442-10.691-21.598-4.711l-20.743 35.096 12.161 2.371a1.5 1.5 0 0 1-.574 2.944l-14.247-2.777a1.5 1.5 0 0 1-1.004-2.235l21.622-36.584zM976 733a4 4 0 1 1 0-8 4 4 0 0 1 0 8zm-21-6a4 4 0 1 1 0-8 4 4 0 0 1 0 8zm-6.359 50.666c-4.552-1.242-7.409-5.01-6.382-8.415 1.027-3.405 5.549-5.159 10.101-3.917 4.551 1.242 7.409 5.01 6.382 8.415-1.027 3.405-5.549 5.159-10.101 3.917zm-11.548 13.315a1.5 1.5 0 0 1 2.815 1.038l-3.5 9.5a1.5 1.5 0 0 1-2.815-1.038l3.5-9.5zm6 2a1.5 1.5 0 0 1 2.815 1.038l-3.5 9.5a1.5 1.5 0 0 1-2.815-1.038l3.5-9.5zm6 2a1.5 1.5 0 0 1 2.815 1.038l-3.5 9.5a1.5 1.5 0 0 1-2.815-1.038l3.5-9.5z" fill="#353535"/><path fill-rule="evenodd" clip-rule="evenodd" d="M1115 400.5v20H902v-20h20v-20h212v20h-19zm-88 41h107v20h-107v-20zm-243 364v19H676v-19h-53v-20h212v20h-51zm572-254h54v20h-213v-20h-53v-20h212v20zM1277 778h71v20h-107v-19h-71v-20h107v19z" fill="#8B8BB5"/><path d="M489 365.5H384v18h105v-18z" stroke="#fff" stroke-width="2"/><path d="M559.468 546.528v9.424h-8.68v7.068h-11.16v-7.068H509v-9.424l30.628-26.908h11.16v26.908h8.68zm-38.44 0h18.6V530.78l-18.6 15.748zm66.774 17.112c-17.236 0-25.42-7.936-25.42-22.382 0-14.384 8.184-22.258 25.42-22.258 17.174 0 25.42 7.936 25.42 22.258 0 14.384-8.246 22.382-25.42 22.382zm0-9.362c9.796 0 14.26-4.898 14.26-13.02 0-8.06-4.464-12.896-14.26-12.896s-14.26 4.774-14.26 12.896c0 8.184 4.464 13.02 14.26 13.02zm79.546-7.75v9.424h-8.68v7.068h-11.16v-7.068H616.88v-9.424l30.628-26.908h11.16v26.908h8.68zm-38.44 0h18.6V530.78l-18.6 15.748z" fill="#fff"/><path fill-rule="evenodd" clip-rule="evenodd" d="M1026 582h9v20h-9v-20zm226 58h9v20h-9v-20z" fill="#8B8BB5"/><path fill-rule="evenodd" clip-rule="evenodd" d="M1124 1030H962v18.5h-15v-62a7.5 7.5 0 0 1 15 0v28.5h162v-28.5c0-4.142 3.36-7.5 7.5-7.5 4.14 0 7.5 3.358 7.5 7.5v52l-15 2V1030z" fill="#FF8484"/><path d="M670.126 1063.05A15.61 15.61 0 0 0 659 1078a1.5 1.5 0 1 0 3 0 12.61 12.61 0 0 1 8.988-12.08l14.943-4.48c.449-.14.809-.47.973-.91.595-1.59 4.751-4.31 12.212-7.66 6.92-3.12 10.795-3.63 15.458-3.04l.636.09c.249.03.44.05.624.07a1.5 1.5 0 1 0 .332-2.98c-.164-.02-.34-.04-.573-.07a18.46 18.46 0 0 0-.639-.08c-5.197-.67-9.63-.08-17.07 3.27-7.535 3.39-11.949 6.14-13.435 8.62l-14.323 4.3z" fill="#353535"/><path fill-rule="evenodd" clip-rule="evenodd" d="M1031 767.659c20.28 5.266 32.07 1.333 35.38-11.8 2.52-9.959-2.74-18.176-14.27-15.39-2.45.592-7.16 5.102-14.11 13.531l-7 13.659z" fill="#FFCDCD"/><path d="m1248.71 994.486 15.24-2.14a28.495 28.495 0 0 1 22.32 6.424l18.26 15.38c.64.53 1.58.45 2.12-.18.53-.64.45-1.58-.18-2.12l-18.27-15.375a31.487 31.487 0 0 0-24.66-7.1l-15.25 2.14c-.82.115-1.39.873-1.28 1.694.12.82.88 1.392 1.7 1.277zM1009 401.5h-87v-2h106v-19h2v19h85v2h-104v19h-2v-19zm295 151h-106.5c-.55 0-1-.448-1-1s.45-1 1-1h52.5v-19h2v19h104c.55 0 1 .448 1 1s-.45 1-1 1h-50v19h-2v-19zm-63 227c-.55 0-1-.448-1-1s.45-1 1-1h36c.55 0 1 .448 1 1s-.45 1-1 1h-36zm-513 25v-19h2v19h54v2H677v-2h51z" fill="#353535"/></svg>

<svg width="1840" height="1380" viewBox="0 0 1840 1380" fill="none" xmlns="http://www.w3.org/2000/svg">
<path fill-rule="evenodd" clip-rule="evenodd" d="M1370 888L1404.31 789.104C1414.49 759.753 1406.77 727.16 1384.5 705.5L1383.53 704.559C1361.14 682.784 1350.21 651.798 1353.99 620.795L1366.86 515.023C1373.53 460.199 1334.49 410.348 1279.67 403.677C1276.87 403.337 1274.07 403.116 1271.25 403.012L1230 401.5L1145.82 321.143C1117.13 293.761 1074.34 287.327 1038.87 305.063L943.548 352.725C928.112 360.443 910.941 364.035 893.706 363.151L816.331 359.183C775.05 357.067 738.439 385.484 730.25 426L717.28 490.166C716.427 494.384 715.848 498.653 715.545 502.946L703.382 675.484C702.799 683.754 700.663 691.84 697.086 699.319L663.637 769.257C653.231 791.016 651.039 815.803 657.466 839.05L671 888H1370Z" fill="#C4C4DE"/>
<path fill-rule="evenodd" clip-rule="evenodd" d="M671 888L581.288 985.381C554.72 1014.22 556.561 1059.14 585.401 1085.71C597.694 1097.03 613.589 1103.66 630.287 1104.41L1295.78 1134.63C1334.95 1136.41 1368.15 1106.1 1369.93 1066.92C1369.98 1065.85 1370 1064.78 1370 1063.7V888H671Z" fill="#8B8BB5"/>
<mask id="mask0" mask-type="alpha" maskUnits="userSpaceOnUse" x="806" y="245" width="650" height="408">
<path d="M833.5 567V245H806.5V580.5C806.5 587.956 812.544 594 820 594H1040.22C1055.94 594 1071.37 598.285 1084.84 606.394L1135.24 636.738C1152.91 647.378 1173.15 653 1193.78 653H1455.5V626H1193.78C1178.06 626 1162.63 621.715 1149.16 613.606L1098.76 583.262C1081.09 572.622 1060.85 567 1040.22 567H833.5Z" fill="white"/>
</mask>
<g mask="url(#mask0)">
<path d="M833.5 567V245H806.5V580.5C806.5 587.956 812.544 594 820 594H1040.22C1055.94 594 1071.37 598.285 1084.84 606.394L1135.24 636.738C1152.91 647.378 1173.15 653 1193.78 653H1455.5V626H1193.78C1178.06 626 1162.63 621.715 1149.16 613.606L1098.76 583.262C1081.09 572.622 1060.85 567 1040.22 567H833.5Z" fill="#FF8484"/>
<path fill-rule="evenodd" clip-rule="evenodd" d="M1337 618H1481V667H1337V618ZM776 559H920V608H776V559ZM798.5 442.5V320H859L847.5 442.5H798.5ZM1085.5 549L1201.5 604V653C1198.17 665.726 1184.5 671.06 1160.5 669C1136.5 666.94 1099.66 657.274 1050 640L1085.5 549Z" fill="#DE6262"/>
</g>
<path fill-rule="evenodd" clip-rule="evenodd" d="M974 654L642 335.5L613 746L967.5 683L974 654Z" fill="#FFEECD"/>
<mask id="mask1" mask-type="alpha" maskUnits="userSpaceOnUse" x="448" y="318" width="288" height="419">
<path d="M509.707 730.94C574.961 757.273 664.704 687.537 710.153 575.18C755.603 462.823 739.547 350.393 674.293 324.06C609.039 297.727 519.296 367.463 473.847 479.82C428.397 592.177 444.453 704.607 509.707 730.94Z" fill="white"/>
</mask>
<g mask="url(#mask1)">
<path d="M611.036 746.127C681.133 739.965 729.435 637.087 718.922 516.343C708.408 395.599 643.061 302.711 572.964 308.873C502.867 315.035 454.565 417.913 465.078 538.657C475.592 659.401 540.939 752.289 611.036 746.127Z" fill="#F5CB76"/>
<path d="M729 669.5V687.5H621V669.5H570V649.5H675H782V669.5H729ZM727 669.5H675H623V685.5H727V669.5ZM621 667.5H675V651.5H572V667.5H621ZM677 667.5H729H780V651.5H677V667.5ZM597 384.5H544V400.5H647V384.5H597ZM597 382.5H649V402.5H544H436V382.5H490V364.5H597V382.5ZM542 400.5V384.5H490H438V400.5H542ZM595 382.5V366.5H492V382.5H542H595ZM488 429.5H595V449.5H488H383V429.5H488ZM488 447.5V431.5H385V447.5H488ZM490 447.5H593V431.5H490V447.5Z" fill="white"/>
<path d="M781 715.5H676V733.5H781V715.5Z" stroke="white" stroke-width="2"/>
<path d="M834 669.5H729V687.5H834V669.5Z" stroke="white" stroke-width="2"/>
</g>
<path fill-rule="evenodd" clip-rule="evenodd" d="M954.966 695C937.678 723.847 937.678 740.565 954.966 745.155C972.253 749.744 986.931 735.648 999 702.867L954.966 695Z" fill="#353535"/>
<path d="M975.5 1048C1092.86 1048 1188 1036.36 1188 1022C1188 1007.64 1092.86 996 975.5 996C858.139 996 763 1007.64 763 1022C763 1036.36 858.139 1048 975.5 1048Z" fill="#353535"/>
<mask id="mask2" mask-type="alpha" maskUnits="userSpaceOnUse" x="622" y="669" width="684" height="418">
<path d="M1232.39 1009.78L1255.35 1026.01C1255.51 1026.12 1255.67 1026.24 1255.82 1026.37C1258.46 1028.63 1258.76 1032.61 1256.5 1035.25C1253.79 1038.42 1249.39 1039.55 1245.48 1038.08C1219.5 1028.35 1204.51 1021.32 1200.5 1017L1139 963.5L1061 944L1056 1046C1049.66 1046.56 1044.83 1046.89 1041.5 1047C1011.5 1048 987.169 1048.37 971.222 1048.61C955.228 1048.86 936.431 1048.61 909.186 1047.78C906.648 1047.7 901.478 1047.14 893.677 1046.1L904.156 936.741L839.724 1002.16C834.59 1007.37 828.9 1012 822.756 1015.97L764.243 1053.79C757.537 1058.12 750.08 1061.16 742.257 1062.75L623 1087C621.254 1072.79 627.087 1059.95 640.5 1048.5C652.206 1038.51 691.198 1031.73 719 1030C721.657 1029.83 744.562 1011 787.713 973.489C789.234 972.167 790.661 970.743 791.987 969.225L865.649 884.888C883.422 864.538 908.809 852.429 935.809 851.423L974 850L982.539 811.46H961.741C946.277 811.46 933.741 798.924 933.741 783.46C933.741 780.383 934.249 777.327 935.242 774.416L955.972 713.681C965.092 686.96 990.199 669 1018.43 669H1032.42C1056.16 669 1075.41 688.246 1075.41 711.986C1075.41 716.958 1074.54 721.892 1072.86 726.569L1026 856.5L1152.75 902.891C1169.92 909.177 1185.04 920.05 1196.46 934.329L1231 977.5C1261 976.167 1277.33 977.833 1280 982.5C1282.21 986.375 1290.06 994.963 1303.54 1008.26C1306.22 1010.9 1306.24 1015.21 1303.6 1017.89C1302.69 1018.82 1301.52 1019.46 1300.25 1019.75C1292.51 1021.49 1284.4 1019.6 1278.23 1014.62L1272.5 1010C1251.97 1011.12 1238.97 1011.12 1233.5 1010C1233.13 1009.92 1232.76 1009.85 1232.39 1009.78Z" fill="white"/>
</mask>
<g mask="url(#mask2)">
<path d="M1232.39 1009.78L1255.35 1026.01C1255.51 1026.12 1255.67 1026.24 1255.82 1026.37C1258.46 1028.63 1258.76 1032.61 1256.5 1035.25C1253.79 1038.42 1249.39 1039.55 1245.48 1038.08C1219.5 1028.35 1204.51 1021.32 1200.5 1017L1139 963.5L1061 944L1056 1046C1049.66 1046.56 1044.83 1046.89 1041.5 1047C1011.5 1048 987.169 1048.37 971.222 1048.61C955.228 1048.86 936.431 1048.61 909.186 1047.78C906.648 1047.7 901.478 1047.14 893.677 1046.1L904.156 936.741L839.724 1002.16C834.59 1007.37 828.9 1012 822.756 1015.97L764.243 1053.79C757.537 1058.12 750.08 1061.16 742.257 1062.75L623 1087C621.254 1072.79 627.087 1059.95 640.5 1048.5C652.206 1038.51 691.198 1031.73 719 1030C721.657 1029.83 744.562 1011 787.713 973.489C789.234 972.167 790.661 970.743 791.987 969.225L865.649 884.888C883.422 864.538 908.809 852.429 935.809 851.423L974 850L982.539 811.46H961.741C946.277 811.46 933.741 798.924 933.741 783.46C933.741 780.383 934.249 777.327 935.242 774.416L955.972 713.681C965.092 686.96 990.199 669 1018.43 669H1032.42C1056.16 669 1075.41 688.246 1075.41 711.986C1075.41 716.958 1074.54 721.892 1072.86 726.569L1026 856.5L1152.75 902.891C1169.92 909.177 1185.04 920.05 1196.46 934.329L1231 977.5C1261 976.167 1277.33 977.833 1280 982.5C1282.21 986.375 1290.06 994.963 1303.54 1008.26C1306.22 1010.9 1306.24 1015.21 1303.6 1017.89C1302.69 1018.82 1301.52 1019.46 1300.25 1019.75C1292.51 1021.49 1284.4 1019.6 1278.23 1014.62L1272.5 1010C1251.97 1011.12 1238.97 1011.12 1233.5 1010C1233.13 1009.92 1232.76 1009.85 1232.39 1009.78Z" fill="#FFCDCD"/>
<path fill-rule="evenodd" clip-rule="evenodd" d="M951 848.5C960 863.833 975 872.5 996 874.5C1017 876.5 1032.33 871.5 1042 859.5L1148 880.906L1103.5 962.5L1081 959.5L1061.31 1047.48L877.054 1060L904.693 938.099L877.054 989.865L800 904.284C833.289 871.557 862.743 851.797 888.361 845.003C913.979 838.21 934.859 839.375 951 848.5Z" fill="#FFF9D6"/>
</g>
<path fill-rule="evenodd" clip-rule="evenodd" d="M1060.69 720.384L1081 725.244C1081.18 759.746 1072.12 774.736 1053.82 770.214C1044.67 767.953 1039.49 762.388 1038.28 753.519C1030.59 759.794 1022.59 761.513 1014.27 758.673C997.399 752.915 996.615 736.024 1011.92 708L1061 719.703C1060.9 719.931 1060.79 720.158 1060.69 720.384Z" fill="#353535"/>
<mask id="mask3" mask-type="alpha" maskUnits="userSpaceOnUse" x="947" y="659" width="143" height="70">
<path d="M947 692.967L1090 729C1084.07 723.413 1081.24 719.149 1081.5 716.207C1084.45 682.855 1065.94 672.317 1027.96 664.071C989.796 655.785 978.15 654.851 961.879 683.145C960.503 685.538 955.544 688.812 947 692.967Z" fill="white"/>
</mask>
<g mask="url(#mask3)">
<path d="M947 692.967L1090 729C1084.07 723.413 1081.24 719.149 1081.5 716.207C1084.45 682.855 1065.94 672.317 1027.96 664.071C989.796 655.785 978.15 654.851 961.879 683.145C960.503 685.538 955.544 688.812 947 692.967Z" fill="#3C3CA0"/>
<path fill-rule="evenodd" clip-rule="evenodd" d="M976 682L1084.5 711L1087.5 699.5L980 667L976 682Z" fill="#26266F"/>
</g>
<path d="M970.5 688C981.27 688 990 679.27 990 668.5C990 657.73 981.27 649 970.5 649C959.73 649 951 657.73 951 668.5C951 679.27 959.73 688 970.5 688Z" fill="#F5CB76"/>
<path d="M970.5 683C979.06 683 986 676.508 986 668.5C986 660.492 979.06 654 970.5 654C961.94 654 955 660.492 955 668.5C955 676.508 961.94 683 970.5 683Z" fill="#FFEECD"/>
<path d="M964.331 718.876C962.213 713.869 959.145 711.5 955 711.5V708.5C960.174 708.5 964.105 711.342 966.685 716.794C976.72 710.814 985.147 712.996 991.287 723.228C991.713 723.939 991.483 724.86 990.772 725.286C990.062 725.712 989.14 725.482 988.714 724.772C983.217 715.61 976.272 714.081 967.116 720.061L946.373 755.157L958.534 757.528C959.347 757.686 959.877 758.474 959.719 759.287C959.56 760.1 958.773 760.631 957.96 760.472L943.713 757.695C942.696 757.497 942.182 756.352 942.709 755.46L964.331 718.876ZM976 733C973.791 733 972 731.209 972 729C972 726.791 973.791 725 976 725C978.21 725 980 726.791 980 729C980 731.209 978.21 733 976 733ZM955 727C952.791 727 951 725.209 951 723C951 720.791 952.791 719 955 719C957.21 719 959 720.791 959 723C959 725.209 957.21 727 955 727ZM948.641 777.666C944.089 776.424 941.232 772.656 942.259 769.251C943.286 765.846 947.808 764.092 952.36 765.334C956.911 766.576 959.769 770.344 958.742 773.749C957.715 777.154 953.193 778.908 948.641 777.666ZM937.093 790.981C937.379 790.204 938.242 789.806 939.019 790.092C939.796 790.379 940.194 791.241 939.908 792.019L936.408 801.519C936.122 802.296 935.259 802.694 934.482 802.408C933.705 802.121 933.306 801.259 933.593 800.481L937.093 790.981ZM943.093 792.981C943.379 792.204 944.242 791.806 945.019 792.092C945.796 792.379 946.194 793.241 945.908 794.019L942.408 803.519C942.122 804.296 941.259 804.694 940.482 804.408C939.705 804.121 939.306 803.259 939.593 802.481L943.093 792.981ZM949.093 794.981C949.379 794.204 950.242 793.806 951.019 794.092C951.796 794.379 952.194 795.241 951.908 796.019L948.408 805.519C948.122 806.296 947.259 806.694 946.482 806.408C945.705 806.121 945.306 805.259 945.593 804.481L949.093 794.981Z" fill="#353535"/>
<path fill-rule="evenodd" clip-rule="evenodd" d="M1115 400.5V420.5H1010H902V400.5H922V380.5H1027H1134V400.5H1115ZM1027 441.5H1134V461.5H1027V441.5ZM784 805.5V824.5H676V805.5H623V785.5H728H835V805.5H784ZM1356 551.5H1410V571.5H1305H1197V551.5H1144V531.5H1249H1356V551.5ZM1277 778H1348V798H1241V779H1170V759H1277V778Z" fill="#8B8BB5"/>
<path d="M489 365.5H384V383.5H489V365.5Z" stroke="white" stroke-width="2"/>
<path d="M559.468 546.528V555.952H550.788V563.02H539.628V555.952H509V546.528L539.628 519.62H550.788V546.528H559.468ZM521.028 546.528H539.628V530.78L521.028 546.528ZM587.802 563.64C570.566 563.64 562.382 555.704 562.382 541.258C562.382 526.874 570.566 519 587.802 519C604.976 519 613.222 526.936 613.222 541.258C613.222 555.642 604.976 563.64 587.802 563.64ZM587.802 554.278C597.598 554.278 602.062 549.38 602.062 541.258C602.062 533.198 597.598 528.362 587.802 528.362C578.006 528.362 573.542 533.136 573.542 541.258C573.542 549.442 578.006 554.278 587.802 554.278ZM667.348 546.528V555.952H658.668V563.02H647.508V555.952H616.88V546.528L647.508 519.62H658.668V546.528H667.348ZM628.908 546.528H647.508V530.78L628.908 546.528Z" fill="white"/>
<path fill-rule="evenodd" clip-rule="evenodd" d="M1026 582H1035V602H1026V582ZM1252 640H1261V660H1252V640Z" fill="#8B8BB5"/>
<path fill-rule="evenodd" clip-rule="evenodd" d="M1124 1030H962V1048.5H947V986.5C947 982.358 950.358 979 954.5 979C958.642 979 962 982.358 962 986.5V1015H1124V986.5C1124 982.358 1127.36 979 1131.5 979C1135.64 979 1139 982.358 1139 986.5V1038.5L1124 1040.5V1030Z" fill="#FF8484"/>
<path d="M670.126 1063.05C663.522 1065.03 659 1071.11 659 1078C659 1078.83 659.672 1079.5 660.5 1079.5C661.328 1079.5 662 1078.83 662 1078C662 1072.43 665.653 1067.52 670.988 1065.92L685.931 1061.44C686.38 1061.3 686.74 1060.97 686.904 1060.53C687.499 1058.94 691.655 1056.22 699.116 1052.87C706.036 1049.75 709.911 1049.24 714.574 1049.83L715.21 1049.92C715.459 1049.95 715.65 1049.97 715.834 1049.99C716.658 1050.08 717.399 1049.49 717.491 1048.67C717.582 1047.84 716.989 1047.1 716.166 1047.01C716.002 1046.99 715.826 1046.97 715.593 1046.94C715.521 1046.93 715.086 1046.87 714.954 1046.86C709.757 1046.19 705.324 1046.78 697.884 1050.13C690.349 1053.52 685.935 1056.27 684.449 1058.75L670.126 1063.05Z" fill="#353535"/>
<path fill-rule="evenodd" clip-rule="evenodd" d="M1031 767.659C1051.28 772.925 1063.07 768.992 1066.38 755.859C1068.9 745.9 1063.64 737.683 1052.11 740.469C1049.66 741.061 1044.95 745.571 1038 754L1031 767.659Z" fill="#FFCDCD"/>
<path d="M1248.71 994.486L1263.95 992.346C1271.97 991.221 1280.08 993.557 1286.27 998.77L1304.53 1014.15C1305.17 1014.68 1306.11 1014.6 1306.65 1013.97C1307.18 1013.33 1307.1 1012.39 1306.47 1011.85L1288.2 996.475C1281.36 990.713 1272.39 988.132 1263.54 989.375L1248.29 991.515C1247.47 991.63 1246.9 992.388 1247.01 993.209C1247.13 994.029 1247.89 994.601 1248.71 994.486Z" fill="#353535"/>
<path d="M1009 401.5H922V399.5H1028V380.5H1030V399.5H1115V401.5H1011V420.5H1009V401.5ZM1304 552.5H1197.5C1196.95 552.5 1196.5 552.052 1196.5 551.5C1196.5 550.948 1196.95 550.5 1197.5 550.5H1250V531.5H1252V550.5H1356C1356.55 550.5 1357 550.948 1357 551.5C1357 552.052 1356.55 552.5 1356 552.5H1306V571.5H1304V552.5ZM1241 779.5C1240.45 779.5 1240 779.052 1240 778.5C1240 777.948 1240.45 777.5 1241 777.5H1277C1277.55 777.5 1278 777.948 1278 778.5C1278 779.052 1277.55 779.5 1277 779.5H1241ZM728 804.5V785.5H730V804.5H784V806.5H677V804.5H728Z" fill="#353535"/>
</svg>
